lib/svgicon/item.svg

<?xml version="1.0" encoding="utf-8"?>
<!-- Generator: Adobe Illustrator 24.0.0, SVG Export Plug-In . SVG Version: 6.00 Build 0)  -->
<svg version="1.1"
	 id="svg8" inkscape:version="0.92.2 (5c3e80d, 2017-08-06)" sodipodi:docname="block.svg" xmlns:cc="http://creativecommons.org/ns#" xmlns:dc="http://purl.org/dc/elements/1.1/" xmlns:inkscape="http://www.inkscape.org/namespaces/inkscape" xmlns:rdf="http://www.w3.org/1999/02/22-rdf-syntax-ns#" xmlns:sodipodi="http://sodipodi.sourceforge.net/DTD/sodipodi-0.dtd" xmlns:svg="http://www.w3.org/2000/svg"
	 xmlns="http://www.w3.org/2000/svg" xmlns:xlink="http://www.w3.org/1999/xlink" x="0px" y="0px" viewBox="0 0 400 400"
	 style="enable-background:new 0 0 400 400;" xml:space="preserve">
<style type="text/css">
	.st0{fill:none;stroke:#000000;stroke-width:30;stroke-linecap:round;stroke-linejoin:round;stroke-miterlimit:10;}
	.st1{fill:none;stroke:#000000;stroke-width:20;stroke-linecap:round;stroke-linejoin:round;stroke-miterlimit:10;}
	.st2{fill:none;stroke:#000000;stroke-width:30;stroke-linejoin:round;stroke-miterlimit:10;}
	.st3{fill:none;stroke:#000000;stroke-width:30;stroke-miterlimit:10;}
	.st4{fill:none;stroke:#000000;stroke-width:20;stroke-linejoin:round;stroke-miterlimit:10;}
</style>
<path class="st0" d="M-2194.4,395.8c-78.8-166,97.6-289.6,211.9-189.4c101.1,115.3-34.6,248.6-128.2,170
	c-72.1-63,3.6-170.2,73.7-117.8c51.8,55.5-35.2,91.5-30.3,49.2"/>
<rect x="-1113.7" y="-208.7" class="st0" width="156.8" height="156.8"/>
<g>
	<rect x="1211.1" y="623" class="st0" width="122.4" height="111.9"/>
	<polygon class="st0" points="1426.9,784.9 1333.5,734.9 1333.5,623 1426.9,573 	"/>
	<path class="st1" d="M1465.6,740.8c15-16.3,24.1-38,24.1-61.9c0-23.9-9.1-45.6-24.1-61.9"/>
	<path class="st1" d="M1503.9,769c20.7-24.2,33.2-55.7,33.2-90.1c0-34.4-12.5-65.8-33.2-90.1"/>
</g>
<g>
	<circle class="st1" cx="1189.1" cy="277.2" r="69.1"/>
	<circle class="st1" cx="1105.9" cy="143.5" r="36.5"/>
	<circle class="st1" cx="1248.4" cy="143.5" r="17.2"/>
	<circle class="st1" cx="1327.1" cy="79.5" r="25.7"/>
	<circle class="st1" cx="1323.4" cy="204.4" r="3.7"/>
</g>
<g>
	<g>
		<path class="st2" d="M55.4,777.1l49.5-28.6l48.5-28L42.5,608.9c-11.1-11.1-28.3-13.3-41.8-5.2l-73.9,44.3l-112.9,67.6l0.1,0.1
			l48.6,47.7l61.7,60.6c0.4,0.4,0.8,0.7,1.2,1.1c11,9.8,27,11.4,39.8,4l46.7-27"/>
		<path class="st2" d="M12.1,802.2l-46.7,27c-12.8,7.4-29,5.7-39.9-4.1c-0.1,0-0.1-0.1-0.2-0.1c-0.3-0.3-0.7-0.6-1-0.9l-61.7-60.6
			l-48.6-47.7v76.8l110.2,108.3c11,10.8,27.8,12.9,41.1,5.2l47-27.2"/>
		<polyline class="st2" points="55.4,853.9 153.4,797.3 153.4,720.5 105,748.6 55.4,777.2 		"/>
		<line class="st1" x1="7.4" y1="653.1" x2="66" y2="712"/>
		<line class="st1" x1="-12" y1="667" x2="46.6" y2="725.9"/>
		<line class="st1" x1="-104.7" y1="732.4" x2="-62.9" y2="774.4"/>
	</g>
	<polyline class="st1" points="-116.1,673.9 12.4,802.4 12.4,933.4 33.5,896.3 55.4,914.9 55.4,776.5 -74.1,647 	"/>
</g>
<g>
	<path class="st3" d="M70,222.7c0.6-32,7.2-57.2,25.8-78c20.3-22.8,50.1-27.9,76.4-12.5c18.8,11,36.7,11.1,55.5,0.1
		c28.3-16.5,60.2-9.5,80.7,17.2c17.6,23,23.8,49.8,21.1,78c-4.3,44.7-21,84.6-49.9,119.2c-7,8.4-15.3,15.3-25.6,19.5
		c-9.6,3.9-19,3.9-28.1-1.1c-17.2-9.5-34.3-9.5-51.5-0.1c-10.1,5.6-20.4,5.1-30.6,0.2c-10.6-5.1-19.2-12.9-26.3-22
		C88.7,306.3,72.8,264.6,70,222.7z"/>
	<path class="st4" d="M196.1,140.2c-9-41.2-25.8-75.6-50.7-90.1l35.3-19.1c26.5,18.6,31.5,60.9,32.7,107.4"/>
</g>
</svg>

<svg width="400" height="400" viewBox="0 0 400 400" fill="none" xmlns="http://www.w3.org/2000/svg">
<path d="M70 222.7C70.6 190.7 77.2 165.5 95.8 144.7C116.1 121.9 145.9 116.8 172.2 132.2C191 143.2 208.9 143.3 227.7 132.3C256 115.8 287.9 122.8 308.4 149.5C326 172.5 332.2 199.3 329.5 227.5C325.2 272.2 308.5 312.1 279.6 346.7C272.6 355.1 264.3 362 254 366.2C244.4 370.1 235 370.1 225.9 365.1C208.7 355.6 191.6 355.6 174.4 365C164.3 370.6 154 370.1 143.8 365.2C133.2 360.1 124.6 352.3 117.5 343.2C88.7 306.3 72.8 264.6 70 222.7Z" stroke="black" stroke-width="30" stroke-miterlimit="10"/>
<path d="M196.1 140.2C187.1 99 170.3 64.6 145.4 50.1L180.7 31C207.2 49.6 212.2 91.9 213.4 138.4" stroke="black" stroke-width="20" stroke-miterlimit="10" stroke-linejoin="round"/>
</svg>
